X:1
T:The Hope of the Coming of the Lord
T:May Whittle Moody
T:The Hope of the Coming of the Lord
T:Public Domain, 
T:Public Domain, 
T:Public Domain, 
C:May Whittle Moody
Z:Public Domain,
%%score ( 1 2 ) ( 3 4 )
L:1/8
M:4/4
K:F
V:1 treble 
V:2 treble 
V:3 bass 
V:4 bass 
V:1
 C | C2 [CD]>[CE] [CF]3 [CF] | [CE][CF][CA][^CA] [DA]2 [DG][DA] | [DB]2 [DG]2 D2 [CE]2 | %4
w: 1.~A|in the night, a song|time of sor- row; A great glad|hope which faith can|
w: 2.~A|in the sky, a bea-|bright to guide us; An an- chor|sure to hold when|
w: 3.~A|of com- mand, like trump-|clear- ly sound- ing, To make us|bold when e- vil|
w: 4.~A|from the One to all|hearts the dear- est, A part- ing|word to make Him|
 [CF][CF][=B,E][B,F] [CA]2 [CG]C | CC[CD][CE] [CF]2 [CF][CF] | [CE][CF][FA][GB] [Ac][Gc][^Fd][Ac] | %7
w: er bor- row To gild the pass-|day, with the glo- ry of the|Is the hope of the com- ing of|
w: be- tide us; A re- fuge for|soul, where in qui- et we may|Is the hope of the com- ing of|
w: sur- round- ing; To stir the slug-|heart and to keep in good a-|Is the hope of the com- ing of|
w: the near- est; Of all His pre-|words, th- e sweet- est, bright- est,|Is the hope of the com- ing of|
 [GB]2 F[FG] [FA]<[FA] [EG]>[CF] | [CF]6 ||"^Refrain" [FA][FA] | (F2 ED [CA]2) [FA][Ac] | %11
w: the Lord. * * * * *||||
w: the Lord. Bless- èd hope, bless- èd|Bless-|èd hope|of * * * the com-|
w: the Lord. * * * * *||||
w: the Lord. * * * * *||||
 [Bc-]4 [Ec]2 [EB][Ec] | [Ge]2 [Fd][Ec] [EB]<[EB] [EA]>[E^G] | [FA]6 [FA][FA] | %14
w: |||
w: of the Lord; How|the ach- ing heart it cheers, How|it glist- ens|
w: |||
w: |||
 [^FA][FA][FB][FA] [=Fd]2 [FG][FG] | [EG][EG][EA][EG] [_Ec]2 [Fd][Ec] | %16
w: ||
w: through our tears, Bless- èd hope of|the com- ing of the Lord. *|
w: ||
w: ||
 [DB]2 F[FG] [FA]<[FA] [EG]>[CF] | [CF]6- [CF] |] %18
w: ||
w: ||
w: ||
w: ||
V:2
 C | C2 x6 | x8 | x4 D2 x2 | x7 C | CC x6 | x8 | x2 F x5 | x6 || x2 | A4- x4 | x8 | x8 | x8 | x8 | %15
w: lamp|in||ev-|ing|mor- row,||||||||||
w: star|con||storms|the|hide us,||hope,|||ing|||||
w: call|et||is|gish|bound- ing,||||||||||
w: word|our||aye|cious|clear- est,||||||||||
 x8 | x2 F x5 | x7 |] %18
w: |||
w: |||
w: |||
w: |||
V:3
 [F,A,] | [F,A,]2 [F,A,]>[F,G,] [F,A,]3 [A,,F,] | %2
 [A,,F,][A,,F,][A,,F,][A,,F,] [B,,F,]2 [B,,F,][A,,^F,] | [G,,G,]2 [B,,G,]2 [C,B,]2 [C,B,]2 | %4
 [D,A,][D,A,][G,,G,][G,,G,] [C,F,]2 [C,E,][C,B,] | [F,A,][F,A,][F,A,][F,G,] [F,A,]2 [F,A,][F,A,] | %6
 [F,G,][F,A,][F,C][F,C] [F,C][_F,C][D,A,][D,D] | [G,D]2 [B,,D][B,,_D] [C,C]<[C,C] [C,B,]>[F,,A,] | %8
 [F,,A,]6 || [F,C][F,C] | [F,C]4- [F,C]2 [F,C][F,F] | (F2 ED [C,C]2) [C,C][C,C] | %12
 [C,B,]2 [C,B,][C,C] [C,D]<[C,D] [C,C]>[C,C] | [F,C]6 [F,C][F,C] | %14
 [D,C][D,C][D,D][C,D] [=B,,G,]2 [B,,G,][B,,G,] | [C,B,][C,B,][C,C][B,,C] [A,,F,]2 [A,,F,][A,,F,] | %16
 [B,,B,]2 [A,,D][A,,_D] [C,C]<[C,C] [C,B,]>[F,,A,] | [F,,A,]6- [F,,A,] |] %18
V:4
 x | x8 | x8 | x8 | x8 | x8 | x8 | x8 | x6 || x2 | x8 | F,4 x4 | x8 | x8 | x8 | x8 | x8 | x7 |] %18

